picto/bike-hire-right-fr-framed.svg

<svg class="color-immutable" width="30" height="30" viewBox="0 0 30 30" fill="none" xmlns="http://www.w3.org/2000/svg"><path d="M0 30V0H30V30H0Z" fill="#2D327D"/><path d="M25.5 3C26.325 3 27 3.675 27 4.5V25.5C27 26.325 26.325 27 25.5 27H4.5C3.675 27 3 26.325 3 25.5V4.5C3 3.675 3.675 3 4.5 3H25.5ZM25.5 2.625H4.5C3.46613 2.625 2.625 3.46613 2.625 4.5V25.5C2.625 26.5339 3.46613 27.375 4.5 27.375H25.5C26.5339 27.375 27.375 26.5339 27.375 25.5V4.5C27.375 3.46613 26.5339 2.625 25.5 2.625Z" fill="white"/><path d="M7.59038 7.83337V8.24865H6V6H6.49065V7.83337H7.59038Z" fill="white"/><path d="M8.62242 6.52298C8.86647 6.52298 9.0659 6.60398 9.22077 6.76598C9.37355 6.92595 9.44997 7.13926 9.44997 7.40581C9.44997 7.68166 9.36845 7.90155 9.2054 8.06565C9.05262 8.21843 8.85372 8.29485 8.60862 8.29485C8.34717 8.29485 8.13897 8.20973 7.98417 8.03955C7.8365 7.87755 7.7627 7.66733 7.7627 7.40896C7.7627 7.15463 7.83447 6.94801 7.97802 6.78908C8.13687 6.61163 8.35167 6.52298 8.62242 6.52298ZM8.59932 6.87053C8.48142 6.87053 8.3876 6.91823 8.31785 7.01355C8.24712 7.10993 8.21172 7.24171 8.21172 7.40888C8.21172 7.58221 8.2466 7.71495 8.31635 7.80728C8.38812 7.90058 8.48607 7.94723 8.61012 7.94723C8.726 7.94723 8.81772 7.9047 8.88545 7.81958C8.96232 7.72523 9.0008 7.58836 9.0008 7.40888C9.0008 7.24073 8.96697 7.11 8.89932 7.0167C8.82852 6.91928 8.72855 6.87053 8.59932 6.87053Z" fill="white"/><path d="M11.2987 7.60426C11.2772 7.77143 11.2213 7.91086 11.1311 8.02261C10.9855 8.20411 10.7799 8.29486 10.5143 8.29486C10.2415 8.29486 10.0293 8.20156 9.87753 8.01496C9.74935 7.85603 9.6853 7.65968 9.6853 7.42591C9.6853 7.13678 9.77095 6.90863 9.94218 6.74146C10.0919 6.59588 10.2852 6.52306 10.5221 6.52306C10.7405 6.52306 10.9179 6.57968 11.0543 6.69301C11.1906 6.80633 11.2686 6.96143 11.2881 7.15831H10.8497C10.8333 7.06913 10.7969 6.99991 10.7405 6.95063C10.6841 6.90143 10.6128 6.87683 10.5267 6.87683C10.4026 6.87683 10.3065 6.92371 10.2383 7.01753C10.1701 7.11136 10.136 7.24283 10.136 7.41203C10.136 7.56173 10.1631 7.68226 10.2175 7.77346C10.2842 7.88521 10.3842 7.94108 10.5174 7.94108C10.7143 7.94108 10.8297 7.82881 10.8635 7.60426H11.2987Z" fill="white"/><path d="M13.0875 8.24865H12.6322C12.6127 8.18303 12.603 8.12715 12.603 8.08103C12.4635 8.22353 12.2835 8.29485 12.0631 8.29485C11.8908 8.29485 11.7565 8.25488 11.6601 8.17485C11.5494 8.0826 11.494 7.9539 11.494 7.78883C11.494 7.5786 11.5889 7.43303 11.7786 7.35203C11.8554 7.31918 11.997 7.28895 12.2031 7.26128C12.3804 7.23773 12.4909 7.21485 12.5345 7.1928C12.5781 7.17075 12.5999 7.12643 12.5999 7.05975C12.5999 6.91313 12.5025 6.83978 12.3077 6.83978C12.2041 6.83978 12.1285 6.85823 12.0808 6.89513C12.0331 6.93203 12.0016 6.99615 11.9862 7.08735H11.5648C11.5782 6.90075 11.6484 6.75998 11.7756 6.66518C11.9027 6.5703 12.0837 6.5229 12.3185 6.5229C12.5779 6.5229 12.7697 6.5757 12.8937 6.6813C12.9512 6.7305 12.9894 6.7833 13.0083 6.8397C13.0273 6.8961 13.0368 6.98528 13.0368 7.1073C13.0368 7.13295 13.0353 7.24575 13.0322 7.4457C13.0302 7.64768 13.0291 7.76355 13.0291 7.79333C13.0291 7.91535 13.0327 8.00483 13.0399 8.06175C13.047 8.11875 13.0629 8.181 13.0875 8.24865ZM12.5968 7.43813C12.5394 7.47405 12.4348 7.50218 12.283 7.52273C12.1764 7.53915 12.0995 7.56015 12.0523 7.5858C11.9856 7.62173 11.9523 7.6827 11.9523 7.7688C11.9523 7.83855 11.9744 7.89285 12.0185 7.93185C12.0626 7.97085 12.1241 7.99028 12.2031 7.99028C12.3343 7.99028 12.4404 7.94415 12.5214 7.85183C12.5502 7.82003 12.5699 7.78695 12.5807 7.7526C12.5914 7.71825 12.5968 7.67288 12.5968 7.61648V7.43813Z" fill="white"/><path d="M14.2857 6.56602V6.88132H13.9519V7.6704C13.9519 7.76475 13.9606 7.82475 13.9781 7.85032C14.0038 7.88722 14.0611 7.90567 14.1504 7.90567C14.1853 7.90567 14.2303 7.90312 14.2858 7.89795V8.2548C14.1853 8.26605 14.093 8.27167 14.0089 8.27167C13.8818 8.27167 13.7849 8.25735 13.7182 8.22862C13.6147 8.1825 13.5501 8.09842 13.5244 7.9764C13.5132 7.92412 13.5075 7.8159 13.5075 7.65187V6.88132H13.2352V6.56602H13.5075V6.17227H13.952V6.56602H14.2857Z" fill="white"/><path d="M14.9886 6V6.40147H14.5425V6H14.9886ZM14.9886 6.57217V8.24873H14.5425V6.57217H14.9886Z" fill="white"/><path d="M16.1498 6.52298C16.3939 6.52298 16.5933 6.60398 16.7481 6.76598C16.9009 6.92595 16.9773 7.13926 16.9773 7.40581C16.9773 7.68166 16.8958 7.90155 16.7327 8.06565C16.58 8.21843 16.3811 8.29485 16.136 8.29485C15.8745 8.29485 15.6663 8.20973 15.5115 8.03955C15.3638 7.87755 15.29 7.66733 15.29 7.40896C15.29 7.15463 15.3618 6.94801 15.5054 6.78908C15.6643 6.61163 15.8792 6.52298 16.1498 6.52298ZM16.1267 6.87053C16.0088 6.87053 15.915 6.91823 15.8453 7.01355C15.7745 7.10993 15.7391 7.24171 15.7391 7.40888C15.7391 7.58221 15.774 7.71495 15.8438 7.80728C15.9155 7.90058 16.0135 7.94723 16.1375 7.94723C16.2534 7.94723 16.3451 7.9047 16.4129 7.81958C16.4897 7.72523 16.5282 7.58836 16.5282 7.40888C16.5282 7.24073 16.4944 7.11 16.4267 7.0167C16.3559 6.91928 16.256 6.87053 16.1267 6.87053Z" fill="white"/><path d="M17.6924 6.57367V6.80902C17.7447 6.73724 17.7935 6.68444 17.8385 6.65062C17.9493 6.56452 18.0826 6.52139 18.2384 6.52139C18.3758 6.52139 18.4922 6.55627 18.5876 6.62602C18.6635 6.68137 18.7165 6.75134 18.7468 6.83594C18.777 6.92054 18.7922 7.03972 18.7922 7.19354V8.24864H18.3476V7.28737C18.3476 7.17974 18.3384 7.10077 18.32 7.05052C18.3026 7.00642 18.2728 6.97154 18.2308 6.94589C18.1826 6.91822 18.1277 6.90434 18.0662 6.90434C17.9986 6.90434 17.937 6.92077 17.8817 6.95354C17.8263 6.98639 17.7853 7.03094 17.7586 7.08734C17.7289 7.15094 17.714 7.24987 17.714 7.38419V8.24857H17.2679V6.57367H17.6924Z" fill="white"/><path d="M13.0152 14.7955L11.2046 15.4287C11.1656 15.4435 11.1227 15.45 11.0809 15.45C10.9556 15.45 10.8395 15.3877 10.7699 15.2839L10.3629 14.6803C10.3296 14.6302 10.3127 14.5717 10.3127 14.5132C10.3127 14.347 10.4466 14.2124 10.612 14.2124H12.9157C13.0821 14.2124 13.2167 14.347 13.2167 14.5132C13.2167 14.6405 13.1351 14.7538 13.0152 14.7955Z" fill="white"/><path d="M19.3507 14.8125H16.725V14.2125H19.3507C19.5161 14.2125 19.65 14.347 19.65 14.5129C19.65 14.678 19.5161 14.8125 19.3507 14.8125Z" fill="white"/><path d="M19.3503 15.787H18.975C18.8095 15.787 18.6747 15.6526 18.6747 15.4874C18.6747 15.3215 18.8095 15.187 18.975 15.187H19.3503C19.5157 15.187 19.6496 15.3215 19.6496 15.4874C19.6497 15.6526 19.5157 15.787 19.3503 15.787Z" fill="white"/><path d="M9.67515 16.6493C7.64632 16.6493 6 18.2954 6 20.325C6 22.3528 7.64632 23.9999 9.67515 23.9999C11.574 23.9999 13.1607 22.5532 13.3344 20.662H14.1167C14.2775 21.0046 14.6222 21.2247 15.0011 21.2247C15.5381 21.2247 15.9755 20.7874 15.9755 20.2498C15.9755 20.0307 15.9021 19.819 15.7664 19.6473L17.7322 16.7245L18.1355 17.3725C17.201 18.067 16.6508 19.1607 16.6508 20.3249C16.6508 22.3527 18.297 23.9998 20.325 23.9998C22.3539 23.9999 24 22.3527 24 20.325C24 18.2954 22.3539 16.6493 20.3251 16.6493C19.7406 16.6493 19.1647 16.7886 18.6454 17.0558L17.9255 15.9H12.0757L11.3557 17.0558C10.8363 16.7886 10.2596 16.6493 9.67515 16.6493ZM17.2501 20.325C17.2501 19.3687 17.695 18.4672 18.4531 17.885L20.0705 20.4829C20.1253 20.571 20.2209 20.625 20.325 20.625C20.4914 20.625 20.6249 20.4904 20.6249 20.325C20.6249 20.2684 20.6092 20.2136 20.5805 20.1663L18.9631 17.5675C19.3868 17.3586 19.8522 17.2499 20.325 17.2499C22.0223 17.2499 23.4008 18.627 23.4008 20.3251C23.4008 22.0224 22.0223 23.4001 20.325 23.4001C18.6278 23.4001 17.2501 22.0222 17.2501 20.325ZM14.7317 19.312L12.8403 16.4997H17.1599L15.2685 19.312C15.1812 19.287 15.0911 19.2749 15.0011 19.2749C14.9092 19.275 14.8189 19.287 14.7317 19.312ZM13.3411 20.0622C13.2638 18.9935 12.7251 18.0112 11.8646 17.3725L12.2687 16.7245L14.2337 19.6473C14.1379 19.7679 14.073 19.9109 14.0433 20.0622H13.3411ZM11.5471 17.885C12.2326 18.4105 12.6656 19.2007 12.7391 20.0622H10.1917L11.5471 17.885ZM9.67515 23.4001C7.9779 23.4001 6.6012 22.0223 6.6012 20.325C6.6012 18.6269 7.9779 17.2498 9.67515 17.2498C10.148 17.2498 10.6143 17.3585 11.0378 17.5674L9.6945 19.7253C9.6891 19.7242 9.6816 19.7242 9.67515 19.7242C9.3444 19.7242 9.07605 19.9934 9.07605 20.3249C9.07605 20.6554 9.34448 20.9248 9.67515 20.9248C9.87383 20.9248 10.0596 20.8263 10.1712 20.662H12.7325C12.5597 22.2199 11.2433 23.4001 9.67515 23.4001Z" fill="white"/></svg>

<svg class="color-immutable" width="30" height="30" viewBox="0 0 30 30" fill="none" xmlns="http://www.w3.org/2000/svg"><g clip-path="url(#a)"><path d="M0 30V0h30v30H0Z" fill="#2D327D"/><path d="M25.5 3c.825 0 1.5.675 1.5 1.5v21c0 .825-.675 1.5-1.5 1.5h-21c-.825 0-1.5-.675-1.5-1.5v-21C3 3.675 3.675 3 4.5 3h21Zm0-.375h-21A1.877 1.877 0 0 0 2.625 4.5v21c0 1.034.841 1.875 1.875 1.875h21a1.877 1.877 0 0 0 1.875-1.875v-21A1.877 1.877 0 0 0 25.5 2.625Z" fill="#fff"/><path d="M7.59 7.833v.416H6V6h.49v1.833h1.1ZM8.622 6.523c.244 0 .444.081.599.243.153.16.229.373.229.64 0 .276-.082.496-.245.66a.807.807 0 0 1-.596.229c-.262 0-.47-.085-.625-.255-.147-.162-.221-.373-.221-.631 0-.254.071-.461.215-.62.159-.177.374-.266.644-.266Zm-.023.348a.331.331 0 0 0-.281.143.656.656 0 0 0-.106.395c0 .173.035.306.104.398a.35.35 0 0 0 .294.14.333.333 0 0 0 .275-.127c.077-.095.116-.232.116-.411 0-.168-.034-.299-.102-.392a.35.35 0 0 0-.3-.146ZM11.299 7.604a.817.817 0 0 1-.168.419c-.146.181-.351.272-.617.272-.272 0-.485-.093-.636-.28a.908.908 0 0 1-.193-.59c0-.288.086-.516.257-.684a.797.797 0 0 1 .58-.218c.219 0 .396.057.532.17a.663.663 0 0 1 .234.465h-.438a.35.35 0 0 0-.11-.207.314.314 0 0 0-.213-.074.336.336 0 0 0-.289.14c-.068.094-.102.226-.102.395a.7.7 0 0 0 .082.361.327.327 0 0 0 .3.168c.196 0 .312-.112.345-.337h.436ZM13.088 8.249h-.456a.605.605 0 0 1-.029-.168.723.723 0 0 1-.54.214c-.172 0-.306-.04-.403-.12a.475.475 0 0 1-.166-.386c0-.21.095-.356.285-.437.076-.033.218-.063.424-.09.177-.024.288-.047.332-.07.043-.021.065-.066.065-.132 0-.147-.098-.22-.292-.22-.104 0-.18.018-.227.055-.048.037-.08.101-.095.192h-.421a.545.545 0 0 1 .21-.422c.128-.095.309-.142.543-.142.26 0 .452.053.576.158.057.05.095.102.114.159a.91.91 0 0 1 .029.267l-.005.339-.003.347c0 .122.004.212.01.269.008.057.024.119.049.187Zm-.491-.81a.865.865 0 0 1-.314.084.758.758 0 0 0-.23.063c-.067.036-.1.097-.1.183 0 .07.021.124.066.163a.27.27 0 0 0 .184.058.403.403 0 0 0 .318-.138.268.268 0 0 0 .06-.1.47.47 0 0 0 .016-.136v-.178ZM14.286 6.566v.315h-.334v.79c0 .094.009.154.026.18.026.036.083.055.172.055.035 0 .08-.003.136-.008v.357c-.1.011-.193.017-.277.017a.764.764 0 0 1-.29-.043.332.332 0 0 1-.195-.253 1.939 1.939 0 0 1-.016-.324v-.77h-.273v-.316h.273v-.394h.444v.394h.334ZM14.989 6v.401h-.447V6h.447Zm0 .572V8.25h-.447V6.572h.447ZM16.15 6.523a.79.79 0 0 1 .598.243c.153.16.23.373.23.64 0 .276-.082.496-.245.66a.807.807 0 0 1-.597.229c-.261 0-.47-.085-.624-.255-.148-.162-.222-.373-.222-.631 0-.254.072-.461.215-.62.16-.177.374-.266.645-.266Zm-.023.348a.331.331 0 0 0-.282.143.655.655 0 0 0-.106.395c0 .173.035.306.105.398a.35.35 0 0 0 .293.14.333.333 0 0 0 .276-.127c.077-.095.115-.232.115-.411 0-.168-.034-.299-.101-.392a.349.349 0 0 0-.3-.146ZM17.692 6.574v.235a.632.632 0 0 1 .546-.288c.138 0 .254.035.35.105a.438.438 0 0 1 .159.21c.03.085.045.204.045.358v1.055h-.444v-.962a.743.743 0 0 0-.028-.236.211.211 0 0 0-.09-.105.355.355 0 0 0-.35.008.304.304 0 0 0-.121.133.74.74 0 0 0-.045.297v.865h-.446V6.574h.424ZM13.015 14.796l-1.81.633a.374.374 0 0 1-.435-.145l-.407-.604a.302.302 0 0 1 .249-.468h2.304a.3.3 0 0 1 .1.584ZM19.35 14.813h-2.625v-.6h2.626a.3.3 0 0 1 0 .6ZM19.35 15.787h-.375a.3.3 0 0 1 0-.6h.375a.3.3 0 0 1 0 .6ZM9.675 16.65a3.676 3.676 0 0 0 0 7.35 3.674 3.674 0 0 0 3.66-3.338h.782a.976.976 0 1 0 1.65-1.015l1.965-2.923.404.648A3.677 3.677 0 0 0 20.325 24a3.676 3.676 0 0 0 0-7.35c-.584 0-1.16.139-1.68.406l-.72-1.156h-5.85l-.72 1.156a3.675 3.675 0 0 0-1.68-.407Zm7.575 3.675c0-.956.445-1.858 1.203-2.44l1.617 2.598a.3.3 0 1 0 .51-.317l-1.617-2.599a3.078 3.078 0 0 1 4.438 2.758 3.076 3.076 0 0 1-6.15 0Zm-2.518-1.013L12.84 16.5h4.32l-1.892 2.812a.971.971 0 0 0-.536 0Zm-1.39.75a3.68 3.68 0 0 0-1.477-2.69l.404-.648 1.965 2.923a.967.967 0 0 0-.19.415h-.703Zm-1.795-2.177a3.072 3.072 0 0 1 1.192 2.177h-2.547l1.355-2.177ZM9.675 23.4a3.075 3.075 0 1 1 1.363-5.833l-1.344 2.158h-.019a.6.6 0 1 0 .496.937h2.562A3.077 3.077 0 0 1 9.675 23.4Z" fill="#fff"/></g><defs><clipPath id="a"><path fill="#fff" d="M0 0h30v30H0z"/></clipPath></defs></svg>
